X: 2
T:Miss Johnston's (Reel)
M:C|
L:1/8
R:Reel
K:G
|: Bd cA GG DG | GG BA Gz eg | fd cA GF DG | E/2F/2G AB cA A2 :|
|: Bd ^ce d2 zA | B/2c/2d ga agag | B/2c/2d ^ce defg | aafa gfed :|
